T: Thistle Schottische, The
M: 4/4
L: 1/8
K: Gmaj
dGBG EG_EG | D6 Bc | d2 BG E2 FG | A6 BF |AGEG D2 FG | A2 B2 c2 ^c2 | dedB AGEF | G6 :|d6 cB | E6 FG | A2 ^GA dAGA | B6 BF | AGEG D2 FG | A2 B2 c2 ^c2 | d2 dB AGEF | G6 :|dgBd GBdB | ceAc EcAG | FAfe d2 cA | G2 BE D2 Bc  |d2 Bd G2 dB | c2 Ac E2 AG | FAfe dcEF | G2 B2 G2 :|d>GB>G E>G^D>G | D6 B>c | d2 B>G E2 F>G | A6 B>F |A>GE>G D2 F>G | A2 B2 c2 ^c2 | d>ed>B A>GE>F | G6 :|d6 c>B | E6 F>G | A2 ^G>A d>AG>A | B6 B>F | A>GE>G D2 F>G | A2 B2 c2 ^c2 | d2 d>B A>GE>F | G6 :|d>gB>d G>Bd>B | c>eA>c E>cA>G | F>Af>e d2 c>A | G2 B>E D2 B>c  |d2 B>d G2 d>B | c2 A>c E2 A>G | F>Af>e d>cE>F | G2 B2 G2 :|
